X: 103
T: Cold and frosty morning
B: canberra pickers and fiddlers
B: old time tunes update
B: tunes
L:1/8
Q: 1/4=100
K:Am
V:1 
|:"Am"EDEG A2A2 | ABcd e2 (3DEF | "G"G2BA    G2D2 |     GABc d2D2  \
| "Am"EDEG A2A2 | ABcd e2ed     |    cBAc "G"BAG2 | "Am"A3B  A2D2 :|
|: "A"e2a2 a2a2 | abag ed^cd    | "G"edef    gfgf |     edBd e2e2  \
| "Am"A2A2 c2c2 | dcd2 e2ed     |    cBAc "G"BAG2 | "Am"A3B  A4   :|
% abcbook-tune_id 67a7d9ec674837e422475e0d
% abcbook-tune_composer_id 
% abcbook-link-0 https://www.youtube.com/watch?v=Ep3oLlP_PE0
% abcbook-link-title-0 Cold Frosty Morning
% abcbook-boost 0
% abcbook-difficulty 0
% abcbook-tags old time tunes
% abcbook-tablature 
% abcbook-transpose 
% abcbook-tuning GDAE
% abcbook-lastupdated 1739147171879
% abcbook-src-url 
% abcbook-soundfonts 
% abcbook-repeats 1


